dist/img/blog/5.svg

<svg width="25" height="25" viewBox="0 0 25 25" fill="none" xmlns="http://www.w3.org/2000/svg">
<path d="M23.4989 7.45867C23.4147 6.21313 21.4018 6.71439 20.7155 6.69163C21.1892 6.53628 22.2957 6.19242 22.2755 5.54225C22.2521 4.77317 20.6541 4.90796 20.1586 5.0578C18.8948 5.44014 17.1407 7.22241 17.0191 7.46337C15.3162 6.01677 13.0363 4.91737 11.5038 4.86236C9.78157 4.80094 8.63706 5.42692 7.41332 6.33928C7.39038 6.27472 6.5844 4.45568 5.52815 3.62237C5.12115 3.30129 3.74335 2.59785 3.43624 3.30318C3.1761 3.89947 4.07652 4.62958 4.45871 4.94972C3.81248 4.71598 2.12914 3.50328 1.58911 4.62911C1.28939 5.25323 3.30241 6.25382 3.79285 6.47407C3.24651 6.61827 1.20805 5.94784 1.0079 6.99025C0.868096 7.71739 2.62256 8.00186 3.17063 8.24487C2.5484 8.62816 2.058 8.95758 2.32912 9.3875C2.83665 10.1919 4.59869 9.14324 4.76972 9.03689C4.44141 9.49194 4.14862 9.93948 3.93151 10.3083C3.31918 11.349 3.07806 13.1025 3.75699 14.1527C3.9158 14.3982 4.22322 14.4582 4.61844 14.3917C4.54147 14.8009 4.49953 15.2222 4.49953 15.6538C4.49953 19.4065 7.55246 22.4595 11.3053 22.4595C15.0271 22.4595 18.0587 19.4565 18.109 15.7462C18.4683 15.7565 18.7485 15.7023 18.9569 15.608C20.1436 14.8221 19.712 12.3897 19.2389 10.5122C19.2373 10.5054 19.2348 10.4988 19.2333 10.4925C19.2333 10.4925 20.2779 12.1622 21.0474 11.6025C21.4584 11.3043 21.0044 10.3757 20.8894 9.89169C21.4255 9.96693 23.1424 10.6069 23.1641 9.86687C23.1853 9.11632 21.8625 8.56057 21.4082 8.22378C21.9443 8.20179 23.5457 8.14948 23.499 7.45864L23.4989 7.45867ZM17.0176 15.6538C17.0176 18.8036 14.4547 21.3665 11.3045 21.3665C8.15449 21.3664 5.59217 18.8037 5.59217 15.6538C5.59217 15.0592 5.68359 14.4859 5.85293 13.9466C7.58432 13.0987 9.71548 11.3753 9.82136 11.1211C13.193 13.9024 15.5031 15.1352 17.0156 15.5619C17.016 15.5924 17.0178 15.6228 17.0178 15.6536L17.0176 15.6538Z" fill="#202125"/>
<path d="M8.68858 15.4937C8.68858 15.97 8.30231 16.3561 7.82604 16.3561C7.34959 16.3561 6.9635 15.97 6.9635 15.4937C6.9635 15.0173 7.34961 14.6312 7.82604 14.6312C8.30233 14.6312 8.68858 15.0173 8.68858 15.4937Z" fill="#202125"/>
<path d="M13.9533 15.4937C13.9533 15.97 13.5672 16.3561 13.0909 16.3561C12.6145 16.3561 12.2284 15.97 12.2284 15.4937C12.2284 15.0173 12.6145 14.6312 13.0909 14.6312C13.5672 14.6312 13.9533 15.0173 13.9533 15.4937Z" fill="#202125"/>
<path d="M10.4431 20.021C9.64528 20.021 8.91061 19.5862 8.52686 18.8856C8.4348 18.7183 8.43763 18.5149 8.53503 18.3505C8.6321 18.1861 8.8082 18.0846 8.99937 18.0837L11.89 18.0708C12.0779 18.062 12.2584 18.1696 12.3566 18.3334C12.4549 18.4974 12.4598 18.7005 12.3695 18.8689C11.9875 19.5796 11.2493 20.0209 10.4432 20.0209L10.4431 20.021Z" fill="#202125"/>
</svg>

<svg width="25" height="25" viewBox="0 0 25 25" fill="none" xmlns="http://www.w3.org/2000/svg"><path d="M23.499 7.459c-.084-1.246-2.097-.745-2.784-.767.474-.156 1.58-.5 1.56-1.15-.023-.769-1.62-.634-2.116-.484-1.264.382-3.018 2.164-3.14 2.405-1.703-1.446-3.983-2.546-5.515-2.6-1.722-.062-2.867.564-4.09 1.476-.024-.064-.83-1.883-1.886-2.717-.407-.32-1.785-1.024-2.092-.319-.26.596.64 1.327 1.023 1.647-.647-.234-2.33-1.447-2.87-.32-.3.623 1.713 1.624 2.204 1.844-.546.144-2.585-.526-2.785.516-.14.727 1.615 1.012 2.163 1.255-.623.383-1.113.713-.842 1.143.508.804 2.27-.245 2.44-.351-.328.455-.62.902-.837 1.271-.613 1.041-.854 2.794-.175 3.845.159.245.466.305.861.239a6.813 6.813 0 006.687 8.068c3.722 0 6.754-3.004 6.804-6.714.36.01.64-.044.848-.138 1.187-.786.755-3.218.282-5.096l-.006-.02s1.045 1.67 1.814 1.11c.411-.298-.043-1.226-.158-1.71.537.075 2.253.715 2.275-.025.021-.75-1.302-1.306-1.756-1.643.536-.022 2.138-.075 2.091-.765zm-6.481 8.195a5.72 5.72 0 01-5.713 5.712 5.719 5.719 0 01-5.452-7.42c1.731-.847 3.862-2.57 3.968-2.825 3.372 2.781 5.682 4.014 7.195 4.44l.002.093z" fill="#202125"/><path d="M8.689 15.494a.863.863 0 11-1.725 0 .863.863 0 011.725 0zm5.264 0a.862.862 0 11-1.724 0 .862.862 0 011.724 0zm-3.51 4.527a2.185 2.185 0 01-1.916-1.135.54.54 0 01.472-.802l2.891-.013a.528.528 0 01.467.262.542.542 0 01.013.536 2.184 2.184 0 01-1.927 1.152z" fill="#202125"/></svg>
